www/assets/icons/highlight.svg

<svg width="24" height="24" viewBox="0 0 24 24" xmlns="http://www.w3.org/2000/svg" fill='currentColor'><path d="M6.005 14L9.005 17V22H15.005V17L18.005 14V9H6.005V14ZM11.005 2H13.005V5H11.005V2ZM3.505 5.88L4.915 4.47L7.03501 6.59L5.625 8L3.505 5.88ZM16.965 6.59L19.085 4.47L20.495 5.88L18.385 8L16.965 6.59Z"/></svg>

<svg xmlns="http://www.w3.org/2000/svg" width="24" height="24" viewBox="0 0 24 24" fill='currentColor'><path d="m6.005 14 3 3v5h6v-5l3-3V9h-12zm5-12h2v3h-2zm-7.5 3.88 1.41-1.41 2.12 2.12L5.625 8zm13.46.71 2.12-2.12 1.41 1.41L18.385 8z"/></svg>
